storage/app/icons/phosphoricons/fill/align-top-fill.svg

<svg xmlns="http://www.w3.org/2000/svg" fill="currentColor" viewBox="0 0 256 256"><path d="M224 40a8 8 0 0 1-8 8H40a8 8 0 0 1 0-16h176a8 8 0 0 1 8 8m-32 24h-40a16 16 0 0 0-16 16v96a16 16 0 0 0 16 16h40a16 16 0 0 0 16-16V80a16 16 0 0 0-16-16m-88 0H64a16 16 0 0 0-16 16v136a16 16 0 0 0 16 16h40a16 16 0 0 0 16-16V80a16 16 0 0 0-16-16"/></svg>

<svg xmlns="http://www.w3.org/2000/svg" viewBox="0 0 256 256" fill="currentColor"><path d="M224,40a8,8,0,0,1-8,8H40a8,8,0,0,1,0-16H216A8,8,0,0,1,224,40ZM192,64H152a16,16,0,0,0-16,16v96a16,16,0,0,0,16,16h40a16,16,0,0,0,16-16V80A16,16,0,0,0,192,64Zm-88,0H64A16,16,0,0,0,48,80V216a16,16,0,0,0,16,16h40a16,16,0,0,0,16-16V80A16,16,0,0,0,104,64Z"/></svg>
